X: 8254
T: Corgarff Castle
R: strathspey
M: 4/4
K: Gminor
{D=E^F}[G2G,2] DG B,D G,G|{=E}F2 CF A,F {=B}AF|{^F}G2 DG B,D G,e|{e}dc/B/ AB/c/ {c}BG G2|
{D=E^F}G2 DG B,D G,G|{=E}F2 CF A,/C/F/A/ {=B}cA|{^F}G2 DG B,D G,e|{e}dc/B/ AB/c/ {c}BG G{^f}g|
ba/g/ dg Bd Gg|ag/f/ cf Ac Ff|ba/g/ dg Bd Ge|{e}dc/B/ Ad DG Gg|
ba/g/ dg Bg G,b|ag/f/ cf Ac Ff|b/a/g/b/ a/g/^f/a/ g/d/B/G/ D/B,/G,/B,/|A,E D/C/B,/A,/ B,G, G,2||

